T: Glenside, The
M: 2/4
L: 1/8
K: Edor
|: A |B2 BA | F/G/A D2 | B2 BA | B/c/d ed |
B2 BA | F/G/A D>E | FD AF | E2 E :|
|: A |Be e>f | ed BA | Be ef | ed Bc |
d>e dB | AF D>E | FD AF | E2- E :|
Submitted by Joerg Froese - February 5th, 2002
